antibot/app/images/dist/service-botfaqtor-logo.svg

<svg width="72" height="30" viewBox="0 0 72 30" fill="none" xmlns="http://www.w3.org/2000/svg">
<path d="M5.40435 0.0175781C7.01863 0.0175781 8.07143 0.929859 8.49254 2.12284C8.98385 3.386 8.84348 4.85968 7.58012 5.77197C9.05404 6.40354 9.54534 7.73688 9.54534 8.92986C9.54534 10.8246 8.28199 12.7895 5.82547 12.7895H0V0.0175781H5.40435ZM1.89503 5.14039H5.33416C7.36956 5.14039 7.36957 1.77196 5.40435 1.77196H1.89503V5.14039ZM1.89503 11.0351H5.82547C7.08882 11.0351 7.72049 9.98249 7.72049 9.00003C7.72049 8.01758 7.08882 6.96495 5.82547 6.96495H1.89503V11.0351Z" fill="#3D88C8"/>
<path d="M13.195 1.91232C14.3179 0.719333 15.9322 0.0175781 17.6869 0.0175781C19.4415 0.0175781 21.0558 0.719333 22.1788 1.91232C23.3018 3.1053 24.0037 4.64916 24.0037 6.40354C24.0037 8.15793 23.3018 9.77197 22.1788 10.8948C20.9856 12.0878 19.4415 12.7895 17.6869 12.7895C15.9322 12.7895 14.3179 12.0878 13.195 10.8948C12.072 9.70179 11.3701 8.15793 11.3701 6.40354C11.3701 4.64916 12.072 3.1053 13.195 1.91232ZM20.9856 3.17547C20.1434 2.33337 19.0204 1.84214 17.7571 1.84214C16.4937 1.84214 15.3707 2.33337 14.5285 3.17547C13.6863 4.01758 13.195 5.14039 13.195 6.40354C13.195 7.6667 13.6863 8.78951 14.5285 9.63161C15.3707 10.4737 16.4937 10.9649 17.7571 10.9649C19.0204 10.9649 20.1434 10.4737 20.9856 9.63161C21.8279 8.78951 22.3192 7.6667 22.3192 6.40354C22.249 5.14039 21.7577 4.01758 20.9856 3.17547Z" fill="#3D88C8"/>
<path d="M29.6884 12.8597V1.77196H25.8281V0.0175781H35.4436V1.77196H31.5132V12.8597H29.6884Z" fill="#3D88C8"/>
<path d="M1.96547 29.9827H0.140625V17.1406H7.79094V18.9652H1.96547V22.8248H7.08907V24.5792H1.96547V29.9827Z" fill="#111111"/>
<path d="M17.1255 26.7547H11.9317L10.6683 29.9827H8.70312L13.8267 17.1406H15.1603L20.2839 29.9827H18.3187L17.1255 26.7547ZM12.6336 25.0003H16.4938L14.5286 19.9476L12.6336 25.0003Z" fill="#111111"/>
<path d="M35.1639 29.9829H33.1987L31.8651 28.7899C29.0577 30.6144 25.3378 30.2636 23.3726 28.0881C22.2496 26.8951 21.4775 25.3513 21.4775 23.5969C21.4775 21.8425 22.1794 20.2285 23.3726 19.1057C24.4956 17.9127 26.1098 17.2109 27.8645 17.2109C29.6192 17.2109 31.2334 17.9127 32.3564 19.1057C33.4794 20.2987 34.2515 21.8425 34.2515 23.5969C34.2515 25.0706 33.7601 26.4039 32.9179 27.5267L35.0937 29.632V29.9829H35.1639ZM27.303 24.439H29.4788L31.5844 26.4039C32.1459 25.632 32.4266 24.6495 32.4266 23.5969C32.4266 22.3337 31.8651 21.2109 31.0931 20.3688C30.2508 19.5267 29.1279 19.0355 27.8645 19.0355C26.6011 19.0355 25.4782 19.5267 24.6359 20.3688C23.8639 21.2109 23.3024 22.3337 23.3024 23.5969C23.3024 24.8601 23.8639 26.053 24.6359 26.825C26.18 28.3688 28.4962 28.6495 30.3912 27.5267L27.2328 24.7197V24.439H27.303ZM27.303 24.7197V24.439V24.7197Z" fill="#111111"/>
<path d="M39.9364 29.9827V18.895H36.0762V17.1406H45.6917V18.895H41.8314V29.9827H39.9364Z" fill="#111111"/>
<path d="M49.0602 19.0354C50.1832 17.8424 51.7975 17.1406 53.5521 17.1406C55.3068 17.1406 56.9211 17.8424 58.044 19.0354C59.167 20.2283 59.8689 21.7722 59.8689 23.5266C59.8689 25.281 59.167 26.895 58.044 28.0178C56.8509 29.2108 55.3068 29.9126 53.5521 29.9126C51.7975 29.9126 50.1832 29.2108 49.0602 28.0178C47.9372 26.8248 47.2354 25.281 47.2354 23.5266C47.2354 21.8424 47.9372 20.2283 49.0602 19.0354ZM56.7807 20.3687C55.9385 19.5266 54.8155 19.0354 53.5521 19.0354C52.2888 19.0354 51.1658 19.5266 50.3235 20.3687C49.4813 21.2108 48.99 22.3336 48.99 23.5968C48.99 24.8599 49.4813 25.9827 50.3235 26.8248C51.1658 27.6669 52.2888 28.1582 53.5521 28.1582C54.8155 28.1582 55.9385 27.6669 56.7807 26.8248C57.6229 25.9827 58.1142 24.8599 58.1142 23.5968C58.1142 22.3336 57.6229 21.1406 56.7807 20.3687Z" fill="#111111"/>
<path d="M64.5716 23.4564H66.7474C68.2915 23.4564 69.0636 22.3336 69.0636 21.2108C69.0636 20.088 68.2915 18.9652 66.7474 18.9652H63.8698V29.9126H62.0449V17.1406H66.7474C69.5549 17.1406 70.9586 19.1757 70.9586 21.2108C70.9586 23.0354 69.8356 24.7196 67.6598 25.1406L71.7306 29.9827H69.3443L64.6418 24.3687V23.4564H64.5716Z" fill="#111111"/>
</svg>

<svg width="72" height="30" fill="none" xmlns="http://www.w3.org/2000/svg"><path d="M5.404.018c1.615 0 2.667.912 3.089 2.105.49 1.263.35 2.737-.913 3.649 1.474.632 1.965 1.965 1.965 3.158 0 1.895-1.263 3.86-3.72 3.86H0V.018h5.404ZM1.895 5.14h3.44c2.035 0 2.035-3.368.07-3.368h-3.51V5.14Zm0 5.895h3.93C7.09 11.035 7.72 9.982 7.72 9c0-.982-.631-2.035-1.895-2.035h-3.93v4.07Zm11.3-9.123C14.318.72 15.932.018 17.687.018s3.369.701 4.492 1.894c1.123 1.193 1.825 2.737 1.825 4.492 0 1.754-.702 3.368-1.825 4.49-1.193 1.194-2.737 1.896-4.492 1.896s-3.37-.702-4.492-1.895c-1.123-1.193-1.825-2.737-1.825-4.491 0-1.755.702-3.299 1.825-4.492Zm7.79 1.263a4.506 4.506 0 0 0-3.228-1.333 4.506 4.506 0 0 0-3.229 1.333 4.505 4.505 0 0 0-1.333 3.229c0 1.263.491 2.386 1.333 3.228a4.506 4.506 0 0 0 3.23 1.333 4.506 4.506 0 0 0 3.228-1.333 4.505 4.505 0 0 0 1.333-3.228c-.07-1.264-.561-2.386-1.333-3.229Zm8.703 9.685V1.772h-3.86V.018h9.616v1.754h-3.93V12.86h-1.826Z" fill="#3D88C8"/><path d="M1.965 29.983H.141V17.14h7.65v1.824H1.965v3.86H7.09v1.754H1.965v5.404Zm15.16-3.228h-5.193l-1.264 3.228H8.703l5.124-12.842h1.333l5.124 12.842h-1.965l-1.194-3.228ZM12.634 25h3.86l-1.965-5.052L12.634 25Zm22.53 4.983h-1.965l-1.334-1.193c-2.807 1.824-6.527 1.474-8.492-.702-1.123-1.193-1.896-2.737-1.896-4.491 0-1.755.702-3.369 1.896-4.491 1.123-1.193 2.737-1.895 4.491-1.895 1.755 0 3.37.702 4.492 1.895 1.123 1.193 1.895 2.736 1.895 4.49 0 1.475-.49 2.808-1.333 3.93l2.176 2.106v.35h.07Zm-7.861-5.544h2.176l2.105 1.965c.562-.772.843-1.755.843-2.807 0-1.263-.562-2.386-1.334-3.228a4.506 4.506 0 0 0-3.229-1.334 4.506 4.506 0 0 0-3.228 1.334c-.772.842-1.334 1.965-1.334 3.228 0 1.263.562 2.456 1.334 3.228 1.544 1.544 3.86 1.825 5.755.702l-3.158-2.807v-.281h.07Zm0 .28v-.28.28Zm12.633 5.264V18.895h-3.86v-1.754h9.616v1.754h-3.86v11.088h-1.896Zm9.124-10.948c1.123-1.193 2.737-1.894 4.492-1.894s3.37.701 4.492 1.894c1.123 1.193 1.825 2.737 1.825 4.492 0 1.754-.702 3.368-1.825 4.49-1.193 1.194-2.737 1.896-4.492 1.896s-3.369-.702-4.492-1.895c-1.123-1.193-1.825-2.737-1.825-4.491 0-1.685.702-3.299 1.825-4.492Zm7.72 1.334a4.506 4.506 0 0 0-3.228-1.334 4.506 4.506 0 0 0-3.228 1.334 4.505 4.505 0 0 0-1.334 3.228c0 1.263.491 2.386 1.334 3.228a4.507 4.507 0 0 0 3.228 1.333 4.506 4.506 0 0 0 3.229-1.333 4.505 4.505 0 0 0 1.333-3.228c0-1.263-.491-2.456-1.333-3.228Zm7.792 3.087h2.175c1.544 0 2.317-1.122 2.317-2.245s-.772-2.246-2.317-2.246H63.87v10.948h-1.825V17.14h4.702c2.808 0 4.212 2.035 4.212 4.07 0 1.824-1.123 3.509-3.3 3.93l4.072 4.842h-2.387l-4.702-5.614v-.913h-.07Z" fill="#111"/></svg>
